X:5583
T:Roaring Jelly
O:england
M:6/8
L:1/8
Q:180
K:D
ADE DF2|Ad2 fec|AG2 BF2|AE2 FGF|EDE DF2|Ad2 fec|ABg fed|cd3d2|A
W: D Bm A G D A D Bm A G A7 D
DE DF2|Ad2 fec|AG2 BF2|AE2 FGF|EDE DF2|Ad2 fec|ABg fed|cd3d2|a
W: D Bm A G D A D Bm A G A7 D
a2 ff2|dA2 fag|fg2 ee2|cA2 egf|efe dgf|eag fba|gfe ded|cd3d2|a
W: D D A A D Em D G D A7 D
a2 ff2|dA2 fag|fg2 ee2|cA2 egf|efe dgf|eag fba|gfe ded|cd3d2|z
W: D D A A D Em D G D A7 D


